X:1
T:How Happy Are We
T:Philip Paul Bliss (1838-1876)
T:How Happy Are We
T:Public Domain
T:Public Domain
C:Philip Paul Bliss (1838-1876)
Z:Public Domain
%%score ( 1 2 ) ( 3 4 )
L:1/8
M:4/4
K:Eb
V:1 treble 
V:2 treble 
V:3 bass 
V:4 bass 
V:1
 [EG][FA] | [GB]2 [GB][Ac] [GB]2 [EG][FA] | (Be)[Bd][Ac] [GB]2 [EG][GB] | %3
w: 1.~Oh, how|hap- py are we, Who in|Je- * sus a- gree, And ex-|
w: 2.~When u-|nit- ed to Him, We par-|take * of the stream Ev- er|
w: 3.~We re-|mem- ber the word Of our|cru- * ci- fied lord, When He|
w: 4.~Co- me,|Lord, from the skies And com-|mand * us to rise To the|
 [Ac]2 [Ac][Ac] ([GB][FA])[EG][FA] | [DF]6 ([EG][FA]) | [GB]2 [GB][Ac] [GB]2 [EG][FA] | %6
w: His re- turn from * a- bove;|We sit *|’neath His vine, And de- light-|
w: ing in peace from * the throne;|We~in Je- *|sus be- lieve, And the Spir-|
w: to pre- pare us * a place,|“I~will come *|in that day And will take|
w: sions of glo- ry * a- bove;|With Thee *|to a- scend And e- ter-|
 (Be)[Bd][Ac] [GB]2 [EG][GB] | [Ac]2 [Ac][Ac] ([GB][EG])[FA][DF] | E6 ||"^Refrain" [GB][Ge] | %10
w: ful- * ly join In the praise|His ex- cel- lent * love. *|||
w: it * re- ceive, That pro- ceeds|the Fa- ther and * Son. Oh,|how|py are|
w: you * a- way, And ad- mit|a site of My * face.” *|||
w: ni- * ty spend, In a rap-|of heav- en- ly * love. *|||
 [Fd]2 [Ac][Ad] [Ge]2 [GB][EG] | [DF]2 [EG][FA] [EG]3 [GB] | [Ac]2 [Ac][Ae] [Ad]2 [Ac][Ad] | %13
w: |||
w: we Who in Je- sus a-|gree, How hap- py, how|hap- py are we. * *|
w: |||
w: |||
 [Ge]6 |] %14
w: |
w: |
w: |
w: |
V:2
 x2 | x8 | G2 x6 | x8 | x8 | x8 | G2 x6 | x8 | E6 || x2 | x8 | x8 | x8 | x6 |] %14
w: ||pect||||of||||||||
w: ||flow-||||from||hap-||||||
w: ||went||||to||||||||
w: ||man-||||ture||||||||
V:3
 z2 | E,4 E,4 | E,8 | [A,,A,]4 E,4 | B,,6 z2 | E,8 | E,8 | [A,,A,]4 [B,,B,]4 | [E,G,B,]6 || %9
 [E,B,][G,B,] | (B,A,)[G,B,][F,B,] [E,B,]2 [E,E][E,B,] | [B,,B,]2 [B,,B,][B,,B,] [E,B,]3 [E,E] | %12
 [A,,E]2 [A,,E][A,,C] [B,,B,]2 [B,,B,][B,,B,] | [E,B,]6 |] %14
V:4
 x2 | x8 | x8 | x8 | x8 | x8 | x8 | x8 | x6 || x2 | B,2 x6 | x8 | x8 | x6 |] %14

